assets/images/number_2.svg

<svg width="223" height="134" viewBox="0 0 223 134" fill="none" xmlns="http://www.w3.org/2000/svg">
<mask id="path-1-outside-1_0_546" maskUnits="userSpaceOnUse" x="-0.74707" y="-0.408203" width="223" height="135" fill="black">
<rect fill="white" x="-0.74707" y="-0.408203" width="223" height="135"/>
<path d="M56.5749 132.841C46.6569 132.841 38.1639 131.245 31.0959 128.053C24.0279 124.747 18.2709 120.301 13.8249 114.715C9.49293 109.129 6.24393 102.688 4.07793 95.3918C2.02593 87.9818 0.99993 80.1728 0.99993 71.9648V62.2178C0.99993 50.8178 2.99493 40.5008 6.98493 31.2668C10.9749 22.0328 17.0739 14.6798 25.2819 9.20779C33.4899 3.73579 43.9209 0.999791 56.5749 0.999791C69.2289 0.999791 79.6029 3.73579 87.6969 9.20779C95.9049 14.6798 102.004 22.0328 105.994 31.2668C109.984 40.5008 111.979 50.8178 111.979 62.2178V71.9648C111.979 80.1728 110.896 87.9818 108.73 95.3918C106.678 102.688 103.429 109.129 98.9829 114.715C94.6509 120.301 88.9509 124.747 81.8829 128.053C74.9289 131.245 66.4929 132.841 56.5749 132.841ZM56.5749 107.02C65.8089 107.02 72.6489 103.828 77.0949 97.4438C81.6549 90.9458 83.9349 80.9138 83.9349 67.3478C83.9349 52.9838 81.5979 42.6668 76.9239 36.3968C72.3639 30.0128 65.5809 26.8208 56.5749 26.8208C47.3409 26.8208 40.4439 30.0128 35.8839 36.3968C31.3239 42.6668 29.0439 52.8698 29.0439 67.0058C29.0439 80.6858 31.2669 90.7748 35.7129 97.2728C40.2729 103.771 47.2269 107.02 56.5749 107.02ZM131.934 129.592V103.942C131.934 98.5838 132.789 93.9098 134.499 89.9198C136.323 85.9298 139.173 82.3958 143.049 79.3178C146.925 76.1258 152.055 73.1618 158.439 70.4258L178.617 61.7048C183.747 59.5388 187.509 56.8598 189.903 53.6678C192.411 50.4758 193.665 46.4288 193.665 41.5268C193.665 36.5108 192.126 32.4068 189.048 29.2148C185.97 26.0228 181.467 24.4268 175.539 24.4268C169.611 24.4268 165.108 26.0798 162.03 29.3858C158.952 32.6918 157.413 37.1378 157.413 42.7238H130.224C130.224 34.8578 131.934 27.7898 135.354 21.5198C138.774 15.1358 143.847 10.1198 150.573 6.47179C157.299 2.82379 165.621 0.999791 175.539 0.999791C185.457 0.999791 193.722 2.76679 200.334 6.30079C207.06 9.83479 212.133 14.5658 215.553 20.4938C219.087 26.4218 220.854 33.0908 220.854 40.5008V42.5528C220.854 52.1288 218.232 60.0518 212.988 66.3218C207.744 72.4778 199.65 77.9498 188.706 82.7378L168.699 91.4588C165.279 92.9408 162.828 94.4798 161.346 96.0758C159.978 97.6718 159.294 99.8378 159.294 102.574V111.124L152.625 105.481H221.025V129.592H131.934Z"/>
</mask>
<path d="M56.5749 132.841C46.6569 132.841 38.1639 131.245 31.0959 128.053C24.0279 124.747 18.2709 120.301 13.8249 114.715C9.49293 109.129 6.24393 102.688 4.07793 95.3918C2.02593 87.9818 0.99993 80.1728 0.99993 71.9648V62.2178C0.99993 50.8178 2.99493 40.5008 6.98493 31.2668C10.9749 22.0328 17.0739 14.6798 25.2819 9.20779C33.4899 3.73579 43.9209 0.999791 56.5749 0.999791C69.2289 0.999791 79.6029 3.73579 87.6969 9.20779C95.9049 14.6798 102.004 22.0328 105.994 31.2668C109.984 40.5008 111.979 50.8178 111.979 62.2178V71.9648C111.979 80.1728 110.896 87.9818 108.73 95.3918C106.678 102.688 103.429 109.129 98.9829 114.715C94.6509 120.301 88.9509 124.747 81.8829 128.053C74.9289 131.245 66.4929 132.841 56.5749 132.841ZM56.5749 107.02C65.8089 107.02 72.6489 103.828 77.0949 97.4438C81.6549 90.9458 83.9349 80.9138 83.9349 67.3478C83.9349 52.9838 81.5979 42.6668 76.9239 36.3968C72.3639 30.0128 65.5809 26.8208 56.5749 26.8208C47.3409 26.8208 40.4439 30.0128 35.8839 36.3968C31.3239 42.6668 29.0439 52.8698 29.0439 67.0058C29.0439 80.6858 31.2669 90.7748 35.7129 97.2728C40.2729 103.771 47.2269 107.02 56.5749 107.02ZM131.934 129.592V103.942C131.934 98.5838 132.789 93.9098 134.499 89.9198C136.323 85.9298 139.173 82.3958 143.049 79.3178C146.925 76.1258 152.055 73.1618 158.439 70.4258L178.617 61.7048C183.747 59.5388 187.509 56.8598 189.903 53.6678C192.411 50.4758 193.665 46.4288 193.665 41.5268C193.665 36.5108 192.126 32.4068 189.048 29.2148C185.97 26.0228 181.467 24.4268 175.539 24.4268C169.611 24.4268 165.108 26.0798 162.03 29.3858C158.952 32.6918 157.413 37.1378 157.413 42.7238H130.224C130.224 34.8578 131.934 27.7898 135.354 21.5198C138.774 15.1358 143.847 10.1198 150.573 6.47179C157.299 2.82379 165.621 0.999791 175.539 0.999791C185.457 0.999791 193.722 2.76679 200.334 6.30079C207.06 9.83479 212.133 14.5658 215.553 20.4938C219.087 26.4218 220.854 33.0908 220.854 40.5008V42.5528C220.854 52.1288 218.232 60.0518 212.988 66.3218C207.744 72.4778 199.65 77.9498 188.706 82.7378L168.699 91.4588C165.279 92.9408 162.828 94.4798 161.346 96.0758C159.978 97.6718 159.294 99.8378 159.294 102.574V111.124L152.625 105.481H221.025V129.592H131.934Z" fill="white" fill-opacity="0.21"/>
<path d="M31.0959 128.053L30.6722 128.959L30.6843 128.964L31.0959 128.053ZM13.8249 114.715L13.0346 115.328L13.0425 115.338L13.8249 114.715ZM4.07793 95.3918L3.1142 95.6587L3.11666 95.6676L3.11928 95.6764L4.07793 95.3918ZM6.98493 31.2668L6.06696 30.8701L6.98493 31.2668ZM25.2819 9.20779L24.7272 8.37574L24.7272 8.37574L25.2819 9.20779ZM87.6969 9.20779L87.1368 10.0362L87.1422 10.0398L87.6969 9.20779ZM105.994 31.2668L105.076 31.6634V31.6634L105.994 31.2668ZM108.73 95.3918L107.77 95.1112L107.767 95.121L108.73 95.3918ZM98.9829 114.715L98.2005 114.092L98.1927 114.102L98.9829 114.715ZM81.8829 128.053L82.3001 128.962L82.3066 128.959L81.8829 128.053ZM77.0949 97.4438L76.2764 96.8694L76.2743 96.8723L77.0949 97.4438ZM76.9239 36.3968L76.1102 36.978L76.1161 36.9863L76.1222 36.9945L76.9239 36.3968ZM35.8839 36.3968L36.6927 36.985L36.6977 36.978L35.8839 36.3968ZM35.7129 97.2728L34.8876 97.8375L34.8944 97.8472L35.7129 97.2728ZM56.5749 132.841V131.841C46.7607 131.841 38.4154 130.261 31.5075 127.141L31.0959 128.053L30.6843 128.964C37.9124 132.228 46.5531 133.841 56.5749 133.841V132.841ZM31.0959 128.053L31.5196 127.147C24.5782 123.9 18.9485 119.546 14.6074 114.092L13.8249 114.715L13.0425 115.338C17.5933 121.055 23.4776 125.593 30.6722 128.959L31.0959 128.053ZM13.8249 114.715L14.6151 114.102C10.3648 108.621 7.17 102.293 5.03658 95.1072L4.07793 95.3918L3.11928 95.6764C5.31786 103.082 8.62105 109.636 13.0347 115.328L13.8249 114.715ZM4.07793 95.3918L5.04166 95.1249C3.0153 87.8075 1.99993 80.0887 1.99993 71.9648H0.99993H-6.96182e-05C-6.96182e-05 80.2569 1.03656 88.1561 3.1142 95.6587L4.07793 95.3918ZM0.99993 71.9648H1.99993V62.2178H0.99993H-6.96182e-05V71.9648H0.99993ZM0.99993 62.2178H1.99993C1.99993 50.9361 3.97377 40.7566 7.9029 31.6634L6.98493 31.2668L6.06696 30.8701C2.01609 40.245 -6.96182e-05 50.6995 -6.96182e-05 62.2178H0.99993ZM6.98493 31.2668L7.9029 31.6634C11.818 22.6029 17.7925 15.4026 25.8366 10.0398L25.2819 9.20779L24.7272 8.37574C16.3553 13.957 10.1319 21.4627 6.06696 30.8701L6.98493 31.2668ZM25.2819 9.20779L25.8366 10.0398C33.8396 4.70452 44.0629 1.99979 56.5749 1.99979V0.999791V-0.000208855C43.7789 -0.000208855 33.1403 2.76706 24.7272 8.37574L25.2819 9.20779ZM56.5749 0.999791V1.99979C69.0877 1.99979 79.2508 4.70481 87.1369 10.0362L87.6969 9.20779L88.257 8.37934C79.9551 2.76677 69.3701 -0.000208855 56.5749 -0.000208855V0.999791ZM87.6969 9.20779L87.1422 10.0398C95.1863 15.4026 101.161 22.6029 105.076 31.6634L105.994 31.2668L106.912 30.8701C102.847 21.4627 96.6235 13.957 88.2516 8.37574L87.6969 9.20779ZM105.994 31.2668L105.076 31.6634C109.005 40.7566 110.979 50.9361 110.979 62.2178H111.979H112.979C112.979 50.6995 110.963 40.245 106.912 30.8701L105.994 31.2668ZM111.979 62.2178H110.979V71.9648H111.979H112.979V62.2178H111.979ZM111.979 71.9648H110.979C110.979 80.0838 109.908 87.798 107.77 95.1112L108.73 95.3918L109.69 95.6724C111.884 88.1656 112.979 80.2617 112.979 71.9648H111.979ZM108.73 95.3918L107.767 95.121C105.749 102.297 102.559 108.617 98.2005 114.092L98.9829 114.715L99.7654 115.338C104.299 109.641 107.607 103.079 109.693 95.6625L108.73 95.3918ZM98.9829 114.715L98.1927 114.102C93.9677 119.55 88.3987 123.901 81.4593 127.147L81.8829 128.053L82.3066 128.959C89.5031 125.592 95.3342 121.052 99.7732 115.328L98.9829 114.715ZM81.8829 128.053L81.4658 127.144C74.6753 130.261 66.3899 131.841 56.5749 131.841V132.841V133.841C66.596 133.841 75.1825 132.229 82.3001 128.962L81.8829 128.053ZM56.5749 107.02V108.02C66.0662 108.02 73.2459 104.72 77.9155 98.0153L77.0949 97.4438L76.2743 96.8723C72.052 102.935 65.5517 106.02 56.5749 106.02V107.02ZM77.0949 97.4438L77.9135 98.0182C82.6491 91.27 84.9349 80.9891 84.9349 67.3478H83.9349H82.9349C82.9349 80.8385 80.6608 90.6216 76.2764 96.8694L77.0949 97.4438ZM83.9349 67.3478H84.9349C84.9349 52.9253 82.5981 42.3353 77.7257 35.7991L76.9239 36.3968L76.1222 36.9945C80.5977 42.9982 82.9349 53.0422 82.9349 67.3478H83.9349ZM76.9239 36.3968L77.7377 35.8156C72.9601 29.127 65.8489 25.8208 56.5749 25.8208V26.8208V27.8208C65.3129 27.8208 71.7677 30.8986 76.1102 36.978L76.9239 36.3968ZM56.5749 26.8208V25.8208C47.0832 25.8208 39.8529 29.1198 35.0702 35.8156L35.8839 36.3968L36.6977 36.978C41.035 30.9058 47.5986 27.8208 56.5749 27.8208V26.8208ZM35.8839 36.3968L35.0752 35.8086C30.3244 42.341 28.0439 52.8101 28.0439 67.0058H29.0439H30.0439C30.0439 52.9295 32.3235 42.9926 36.6927 36.985L35.8839 36.3968ZM29.0439 67.0058H28.0439C28.0439 80.7558 30.2712 91.0903 34.8876 97.8375L35.7129 97.2728L36.5382 96.7081C32.2627 90.4592 30.0439 80.6158 30.0439 67.0058H29.0439ZM35.7129 97.2728L34.8944 97.8472C39.6767 104.662 46.9673 108.02 56.5749 108.02V107.02V106.02C47.4866 106.02 40.8692 102.88 36.5315 96.6984L35.7129 97.2728ZM131.934 129.592H130.934V130.592H131.934V129.592ZM134.499 89.9198L133.589 89.504L133.584 89.5149L133.58 89.5259L134.499 89.9198ZM143.049 79.3178L143.671 80.1009L143.678 80.0954L143.685 80.0897L143.049 79.3178ZM158.439 70.4258L158.833 71.3449L158.836 71.3437L158.439 70.4258ZM178.617 61.7048L178.228 60.7835L178.22 60.7869L178.617 61.7048ZM189.903 53.6678L189.117 53.05L189.11 53.0588L189.103 53.0678L189.903 53.6678ZM162.03 29.3858L162.762 30.0672L162.03 29.3858ZM157.413 42.7238V43.7238H158.413V42.7238H157.413ZM130.224 42.7238H129.224V43.7238H130.224V42.7238ZM135.354 21.5198L136.232 21.9987L136.235 21.992L135.354 21.5198ZM150.573 6.47179L151.05 7.35082L150.573 6.47179ZM200.334 6.30079L199.862 7.18275L199.869 7.18604L200.334 6.30079ZM215.553 20.4938L214.687 20.9935L214.69 20.9997L214.694 21.0059L215.553 20.4938ZM212.988 66.3218L213.749 66.9703L213.755 66.9634L212.988 66.3218ZM188.706 82.7378L189.105 83.6545L189.107 83.654L188.706 82.7378ZM168.699 91.4588L169.096 92.3764L169.098 92.3755L168.699 91.4588ZM161.346 96.0758L160.613 95.3953L160.6 95.4099L160.587 95.425L161.346 96.0758ZM159.294 111.124L158.648 111.887L160.294 113.28V111.124H159.294ZM152.625 105.481V104.481H149.895L151.979 106.244L152.625 105.481ZM221.025 105.481H222.025V104.481H221.025V105.481ZM221.025 129.592V130.592H222.025V129.592H221.025ZM131.934 129.592H132.934V103.942H131.934H130.934V129.592H131.934ZM131.934 103.942H132.934C132.934 98.6884 133.772 94.1537 135.418 90.3137L134.499 89.9198L133.58 89.5259C131.805 93.6659 130.934 98.4792 130.934 103.942H131.934ZM134.499 89.9198L135.408 90.3356C137.159 86.5064 139.902 83.0935 143.671 80.1009L143.049 79.3178L142.427 78.5347C138.443 81.6981 135.487 85.3531 133.589 89.504L134.499 89.9198ZM143.049 79.3178L143.685 80.0897C147.465 76.9761 152.505 74.0568 158.833 71.3449L158.439 70.4258L158.045 69.5067C151.604 72.2668 146.384 75.2755 142.413 78.5459L143.049 79.3178ZM158.439 70.4258L158.836 71.3437L179.014 62.6227L178.617 61.7048L178.22 60.7869L158.042 69.5079L158.439 70.4258ZM178.617 61.7048L179.006 62.626C184.237 60.4171 188.169 57.6465 190.703 54.2678L189.903 53.6678L189.103 53.0678C186.849 56.073 183.256 58.6605 178.228 60.7835L178.617 61.7048ZM189.903 53.6678L190.689 54.2856C193.363 50.8831 194.665 46.6048 194.665 41.5268H193.665H192.665C192.665 46.2527 191.459 50.0685 189.117 53.05L189.903 53.6678ZM193.665 41.5268H194.665C194.665 36.2887 193.049 31.924 189.768 28.5207L189.048 29.2148L188.328 29.9089C191.202 32.8896 192.665 36.7329 192.665 41.5268H193.665ZM189.048 29.2148L189.768 28.5207C186.444 25.074 181.643 23.4268 175.539 23.4268V24.4268V25.4268C181.29 25.4268 185.496 26.9715 188.328 29.9089L189.048 29.2148ZM175.539 24.4268V23.4268C169.424 23.4268 164.619 25.1369 161.298 28.7044L162.03 29.3858L162.762 30.0672C165.596 27.0226 169.797 25.4268 175.539 25.4268V24.4268ZM162.03 29.3858L161.298 28.7044C158.009 32.2368 156.413 36.9477 156.413 42.7238H157.413H158.413C158.413 37.3279 159.895 33.1468 162.762 30.0672L162.03 29.3858ZM157.413 42.7238V41.7238H130.224V42.7238V43.7238H157.413V42.7238ZM130.224 42.7238H131.224C131.224 35.0078 132.9 28.1073 136.232 21.9986L135.354 21.5198L134.476 21.0409C130.968 27.4723 129.224 34.7078 129.224 42.7238H130.224ZM135.354 21.5198L136.235 21.992C139.558 15.7902 144.485 10.9112 151.05 7.35082L150.573 6.47179L150.096 5.59276C143.209 9.32838 137.99 14.4814 134.472 21.0476L135.354 21.5198ZM150.573 6.47179L151.05 7.35082C157.592 3.80228 165.739 1.99979 175.539 1.99979V0.999791V-0.000208855C165.502 -0.000208855 157.005 1.8453 150.096 5.59276L150.573 6.47179ZM175.539 0.999791V1.99979C185.344 1.99979 193.435 3.74722 199.862 7.18273L200.334 6.30079L200.805 5.41886C194.009 1.78637 185.57 -0.000208855 175.539 -0.000208855V0.999791ZM200.334 6.30079L199.869 7.18604C206.446 10.6421 211.371 15.2471 214.687 20.9935L215.553 20.4938L216.419 19.9941C212.894 13.8845 207.673 9.02752 200.799 5.41555L200.334 6.30079ZM215.553 20.4938L214.694 21.0059C218.129 26.7676 219.854 33.2573 219.854 40.5008H220.854H221.854C221.854 32.9243 220.045 26.076 216.412 19.9817L215.553 20.4938ZM220.854 40.5008H219.854V42.5528H220.854H221.854V40.5008H220.854ZM220.854 42.5528H219.854C219.854 51.9365 217.289 59.6201 212.221 65.6802L212.988 66.3218L213.755 66.9634C219.174 60.4835 221.854 52.3211 221.854 42.5528H220.854ZM212.988 66.3218L212.227 65.6733C207.116 71.6722 199.171 77.0677 188.305 81.8216L188.706 82.7378L189.107 83.654C200.129 78.8318 208.371 73.2834 213.749 66.9703L212.988 66.3218ZM188.706 82.7378L188.306 81.8211L168.299 90.5421L168.699 91.4588L169.098 92.3755L189.105 83.6545L188.706 82.7378ZM168.699 91.4588L168.301 90.5412C164.832 92.0446 162.233 93.6503 160.613 95.3953L161.346 96.0758L162.079 96.7562C163.422 95.3093 165.726 93.837 169.096 92.3764L168.699 91.4588ZM161.346 96.0758L160.587 95.425C159.021 97.2511 158.294 99.6724 158.294 102.574H159.294H160.294C160.294 100.003 160.934 98.0925 162.105 96.7266L161.346 96.0758ZM159.294 102.574H158.294V111.124H159.294H160.294V102.574H159.294ZM159.294 111.124L159.94 110.36L153.271 104.717L152.625 105.481L151.979 106.244L158.648 111.887L159.294 111.124ZM152.625 105.481V106.481H221.025V105.481V104.481H152.625V105.481ZM221.025 105.481H220.025V129.592H221.025H222.025V105.481H221.025ZM221.025 129.592V128.592H131.934V129.592V130.592H221.025V129.592Z" fill="url(#paint0_linear_0_546)" mask="url(#path-1-outside-1_0_546)"/>
<defs>
<linearGradient id="paint0_linear_0_546" x1="26.6748" y1="129.592" x2="79.4656" y2="-20.4494" gradientUnits="userSpaceOnUse">
<stop stop-color="#585858"/>
<stop offset="1" stop-color="#869F9B"/>
</linearGradient>
</defs>
</svg>

<svg xmlns="http://www.w3.org/2000/svg" width="223" height="134" fill="none" viewBox="0 0 223 134"><mask id="b" width="223" height="135" x="-.747" y="-.408" fill="#000" maskUnits="userSpaceOnUse"><path fill="#fff" d="M-.747-.408h223v135h-223z"/><path d="M56.575 132.841q-14.877 0-25.48-4.788-10.6-4.959-17.27-13.338-6.498-8.379-9.747-19.323Q1 84.276 1 71.965v-9.747q0-17.1 5.985-30.951t18.297-22.06Q37.594 1 56.575 1t31.122 8.208q12.312 8.208 18.297 22.059 5.985 13.85 5.985 30.95v9.748q0 12.312-3.249 23.427-3.078 10.944-9.747 19.323-6.498 8.379-17.1 13.338-10.431 4.788-25.308 4.788m0-25.821q13.851 0 20.52-9.576 6.84-9.747 6.84-30.096 0-21.546-7.011-30.951-6.84-9.576-20.35-9.576-13.85 0-20.69 9.576-6.84 9.405-6.84 30.609 0 20.52 6.669 30.267 6.84 9.747 20.862 9.747m75.359 22.572v-25.65q0-8.037 2.565-14.022 2.736-5.985 8.55-10.602 5.814-4.788 15.39-8.892l20.178-8.721q7.695-3.249 11.286-8.037 3.762-4.789 3.762-12.141 0-7.524-4.617-12.312t-13.509-4.788-13.509 4.959-4.617 13.338h-27.189q0-11.799 5.13-21.204 5.13-9.576 15.219-15.048T175.539 1t24.795 5.3q10.089 5.302 15.219 14.194 5.301 8.892 5.301 20.007v2.052q0 14.364-7.866 23.769-7.866 9.234-24.282 16.416l-20.007 8.72q-5.13 2.224-7.353 4.618-2.052 2.394-2.052 6.498v8.55l-6.669-5.643h68.4v24.111z"/></mask><path fill="#fff" fill-opacity=".21" d="M56.575 132.841q-14.877 0-25.48-4.788-10.6-4.959-17.27-13.338-6.498-8.379-9.747-19.323Q1 84.276 1 71.965v-9.747q0-17.1 5.985-30.951t18.297-22.06Q37.594 1 56.575 1t31.122 8.208q12.312 8.208 18.297 22.059 5.985 13.85 5.985 30.95v9.748q0 12.312-3.249 23.427-3.078 10.944-9.747 19.323-6.498 8.379-17.1 13.338-10.431 4.788-25.308 4.788m0-25.821q13.851 0 20.52-9.576 6.84-9.747 6.84-30.096 0-21.546-7.011-30.951-6.84-9.576-20.35-9.576-13.85 0-20.69 9.576-6.84 9.405-6.84 30.609 0 20.52 6.669 30.267 6.84 9.747 20.862 9.747m75.359 22.572v-25.65q0-8.037 2.565-14.022 2.736-5.985 8.55-10.602 5.814-4.788 15.39-8.892l20.178-8.721q7.695-3.249 11.286-8.037 3.762-4.789 3.762-12.141 0-7.524-4.617-12.312t-13.509-4.788-13.509 4.959-4.617 13.338h-27.189q0-11.799 5.13-21.204 5.13-9.576 15.219-15.048T175.539 1t24.795 5.3q10.089 5.302 15.219 14.194 5.301 8.892 5.301 20.007v2.052q0 14.364-7.866 23.769-7.866 9.234-24.282 16.416l-20.007 8.72q-5.13 2.224-7.353 4.618-2.052 2.394-2.052 6.498v8.55l-6.669-5.643h68.4v24.111z"/><path fill="url(#a)" d="m31.096 128.053-.424.906.012.005zm-17.271-13.338-.79.613.008.01zM4.078 95.392l-.964.267.003.009.002.008zm2.907-64.125-.918-.397zm18.297-22.06-.555-.831zm62.415 0-.56.83.005.003zm18.297 22.06-.918.396zm2.736 64.125-.96-.28-.003.009zm-9.747 19.323-.782-.623-.008.01zm-17.1 13.338.417.909.007-.003zm-4.788-30.61-.819-.574-.002.003zm-.171-61.046-.814.581.006.008.006.009zm-41.04 0 .809.588.005-.007zm-.171 60.876-.825.565.006.01zm20.862 35.568v-1c-9.814 0-18.16-1.58-25.068-4.7l-.411.912-.412.911c7.228 3.264 15.87 4.877 25.89 4.877zm-25.48-4.788.425-.906c-6.942-3.247-12.571-7.601-16.913-13.055l-.782.623-.782.623c4.55 5.717 10.435 10.255 17.63 13.621zm-17.27-13.338.79-.613c-4.25-5.481-7.445-11.809-9.578-18.995l-.96.285-.958.284c2.199 7.406 5.502 13.96 9.916 19.652zM4.078 95.392l.964-.267Q2 84.15 2 71.965H0q0 12.439 3.114 23.694zM1 71.965h1v-9.747H0v9.747zm0-9.747h1c0-11.282 1.974-21.461 5.903-30.555l-.918-.396-.918-.397C2.017 40.245 0 50.7 0 62.218zm5.985-30.951.918.396c3.915-9.06 9.89-16.26 17.934-21.623l-.555-.832-.555-.832c-8.372 5.581-14.595 13.087-18.66 22.494zm18.297-22.06.555.833C33.84 4.705 44.063 2 56.575 2V0C43.779 0 33.14 2.767 24.727 8.376zM56.575 1v1c12.513 0 22.676 2.705 30.562 8.036l.56-.828.56-.829C79.955 2.767 69.37 0 56.575 0zm31.122 8.208-.555.832c8.044 5.363 14.019 12.563 17.934 21.623l.918-.396.918-.397c-4.065-9.407-10.288-16.913-18.66-22.494zm18.297 22.059-.918.396c3.929 9.094 5.903 19.273 5.903 30.555h2c0-11.519-2.016-21.973-6.067-31.348zm5.985 30.95h-1v9.748h2v-9.747zm0 9.748h-1q-.001 12.178-3.209 23.146l.96.28.96.281q3.29-11.26 3.289-23.707zm-3.249 23.427-.963-.271c-2.018 7.176-5.208 13.496-9.566 18.971l.782.623.782.623c4.534-5.697 7.842-12.259 9.928-19.675zm-9.747 19.323-.79-.613c-4.225 5.448-9.794 9.799-16.734 13.045l.424.906.424.906c7.196-3.367 13.027-7.907 17.466-13.631zm-17.1 13.338-.417-.909c-6.79 3.117-15.076 4.697-24.891 4.697v2c10.021 0 18.608-1.612 25.725-4.879zM56.575 107.02v1c9.491 0 16.67-3.3 21.34-10.005l-.82-.571-.82-.572c-4.223 6.063-10.723 9.148-19.7 9.148zm20.52-9.576.819.574c4.735-6.748 7.02-17.029 7.02-30.67h-2c0 13.49-2.273 23.274-6.658 29.521zm6.84-30.096h1c0-14.423-2.337-25.013-7.21-31.549l-.801.598-.802.598c4.476 6.003 6.813 16.047 6.813 30.353zm-7.011-30.951.814-.581c-4.778-6.689-11.89-9.995-21.163-9.995v2c8.738 0 15.193 3.078 19.535 9.157zm-20.35-9.576v-1c-9.49 0-16.721 3.299-21.504 9.995l.814.58.814.582c4.337-6.072 10.9-9.157 19.877-9.157zm-20.69 9.576-.809-.588c-4.75 6.532-7.031 17.001-7.031 31.197h2c0-14.077 2.28-24.013 6.649-30.021zm-6.84 30.609h-1c0 13.75 2.227 24.084 6.844 30.832l.825-.565.825-.565c-4.275-6.249-6.494-16.092-6.494-29.702zm6.669 30.267-.819.574c4.783 6.815 12.073 10.173 21.68 10.173v-2c-9.087 0-15.705-3.14-20.042-9.322zm96.221 32.319h-1v1h1zm2.565-39.672-.91-.416-.005.01-.004.012zm8.55-10.602.622.783.007-.006.007-.005zm15.39-8.892.394.919.003-.001zm20.178-8.721-.389-.922-.008.004zm11.286-8.037-.786-.618-.007.009-.007.009zM162.03 29.386l.732.681zm-4.617 13.338v1h1v-1zm-27.189 0h-1v1h1zm5.13-21.204.878.479.003-.007zm15.219-15.048.477.879zm49.761-.171-.472.882.007.003zm15.219 14.193-.866.5.003.006.004.006zm-2.565 45.828.761.648.006-.007zm-24.282 16.416.399.916h.002zm-20.007 8.72.397.918h.002zm-7.353 4.618-.733-.68-.013.014-.013.015zm-2.052 15.048-.646.763 1.646 1.393v-2.156zm-6.669-5.643v-1h-2.73l2.084 1.763zm68.4 0h1v-1h-1zm0 24.111v1h1v-1zm-89.091 0h1v-25.65h-2v25.65zm0-25.65h1c0-5.254.838-9.788 2.484-13.628l-.919-.394-.919-.394c-1.775 4.14-2.646 8.953-2.646 14.416zm2.565-14.022.909.416c1.751-3.83 4.494-7.242 8.263-10.235l-.622-.783-.622-.783c-3.984 3.163-6.94 6.818-8.838 10.969zm8.55-10.602.636.772c3.78-3.114 8.82-6.033 15.148-8.745l-.394-.92-.394-.918c-6.441 2.76-11.661 5.768-15.632 9.039zm15.39-8.892.397.918 20.178-8.721-.397-.918-.397-.918-20.178 8.72zm20.178-8.721.389.921c5.231-2.209 9.163-4.98 11.697-8.358l-.8-.6-.8-.6c-2.254 3.005-5.847 5.593-10.875 7.715zm11.286-8.037.786.618c2.674-3.403 3.976-7.681 3.976-12.76h-2c0 4.727-1.206 8.542-3.548 11.524zm3.762-12.141h1c0-5.238-1.616-9.603-4.897-13.006l-.72.694-.72.694c2.874 2.98 4.337 6.824 4.337 11.618zm-4.617-12.312.72-.694c-3.324-3.447-8.125-5.094-14.229-5.094v2c5.751 0 9.957 1.544 12.789 4.482zm-13.509-4.788v-1c-6.115 0-10.92 1.71-14.241 5.277l.732.682.732.681c2.834-3.044 7.035-4.64 12.777-4.64zm-13.509 4.959-.732-.682c-3.289 3.533-4.885 8.244-4.885 14.02h2c0-5.396 1.482-9.577 4.349-12.657zm-4.617 13.338v-1h-27.189v2h27.189zm-27.189 0h1c0-7.716 1.676-14.617 5.008-20.725l-.878-.48-.878-.478c-3.508 6.431-5.252 13.667-5.252 21.683zm5.13-21.204.881.472c3.323-6.202 8.25-11.08 14.815-14.641l-.477-.88-.477-.878c-6.887 3.735-12.106 8.888-15.624 15.455zm15.219-15.048.477.879C157.592 3.802 165.739 2 175.539 2V0c-10.037 0-18.534 1.845-25.443 5.593zM175.539 1v1c9.805 0 17.896 1.747 24.323 5.183l.472-.882.471-.882c-6.796-3.633-15.235-5.42-25.266-5.42zm24.795 5.3-.465.886c6.577 3.456 11.502 8.061 14.818 13.808l.866-.5.866-.5c-3.525-6.11-8.746-10.966-15.62-14.578zm15.219 14.194-.859.512c3.435 5.762 5.16 12.251 5.16 19.495h2c0-7.577-1.809-14.425-5.442-20.52zm5.301 20.007h-1v2.052h2V40.5zm0 2.052h-1c0 9.384-2.565 17.067-7.633 23.127l.767.642.767.641c5.419-6.48 8.099-14.642 8.099-24.41zm-7.866 23.769-.761-.649c-5.111 6-13.056 11.395-23.922 16.149l.401.916.401.916c11.022-4.822 19.264-10.37 24.642-16.684zm-24.282 16.416-.4-.917-20.007 8.721.4.917.399.916 20.007-8.72zm-20.007 8.72-.398-.917c-3.469 1.504-6.068 3.11-7.688 4.854l.733.68.733.681c1.343-1.447 3.647-2.919 7.017-4.38zm-7.353 4.618-.759-.651c-1.566 1.826-2.293 4.247-2.293 7.149h2c0-2.571.64-4.481 1.811-5.847zm-2.052 6.498h-1v8.55h2v-8.55zm0 8.55.646-.764-6.669-5.643-.646.764-.646.763 6.669 5.643zm-6.669-5.643v1h68.4v-2h-68.4zm68.4 0h-1v24.111h2v-24.111zm0 24.111v-1h-89.091v2h89.091z" mask="url(#b)"/><defs><linearGradient id="a" x1="26.675" x2="79.466" y1="129.592" y2="-20.449" gradientUnits="userSpaceOnUse"><stop stop-color="#585858"/><stop offset="1" stop-color="#869f9b"/></linearGradient></defs></svg>
